!!!OTL: Had Awa Frae Me, Donald
!!!id: HA012
**kern
*clefF4
*k[f#c#]
*A:
*M4/4
{8a
=1
4a
4f#
2a
=2
4e
4c#
2e}
=3yy
{4a
4f#
4a
4b
=4
2cc#
4b
8a}
16r
{16a
=5
4a
4f#
4.a
8f#
=6
4e
4c#
4.e}
{8e
=7
4a
4f#
4a
4b
=8
2cc#
4b
8a}
{8a
=9
4b
4cc#
4ee
4ff#
=10
4ee
4cc#
4b}
{4a
=11
4b
4cc#
4ee
4ff#
=12
2cc#
4b
8a}
16r
{16a
=13
4b
4cc#
4ee
4ff#
=14
4e
4cc#
4.ee}
{8a
=15
4a
4f#
4a
4b
=16
2cc#
4b
8a}
==
*-
!!!minrhy: 16
!!!meter: 4/4
!!!cut: Had Awa Frae Me, Donald
!!!key: HA012  16  A 4/4
!!!fog: a--b--aw-bv-c--cw--cv-bv'
!!!bem: Formteile b und c sowie av und cv zum Schluss gleich
!! Haydn: Volksliedbearbeitungen, Bd1
